X:1
T:Star in the East, 11.10.11.10
T:Star in the East, 11.10.11.10
T:Harmonia Sacra, 1753
T:Public Domain Courtesy of the Cyber Hymnal™
C:Harmonia Sacra, 1753
Z:Public Domain
Z:Courtesy of the Cyber Hymnal™
%%score ( 1 2 ) ( 3 4 )
L:1/8
M:4/4
K:C
V:1 treble 
V:2 treble 
V:3 bass 
V:4 bass 
V:1
 [B,D]4 [B,D]2 B,2 | (D3 E) [DG]2 [DA]2 | [GB]4 [^FA]2 [DF]2 | (G3 E) D4 | [B,D]4 [B,D]2 B,2 | %5
 ([B,D]3 [CE]) [B,G]2 [EA]2 | [DB]4 [DA]2 [DA]2 | [DG]8 | [Dd]4 (dc) [DB]2 | [^FA]4 [GB]2 [FA]2 | %10
 [EG]4 [EB]2 [DG]2 | (G3 E) D4 | [B,D]4 [B,D]2 B,2 | ([B,D]3 [CE]) [DG]2 [EA]2 | %14
 [DB]4 [DA]2 [DA]2 | [DG]8 |] %16
V:2
 x6 B,2 | D3 E x4 | x8 | E4 D4 | x6 B,2 | x8 | x8 | x8 | x4 D2 x2 | x8 | x8 | D4 D4 | x6 B,2 | x8 | %14
 x8 | x8 |] %16
V:3
 [G,,D,G,]4 [D,G,]2 [B,,G,]2 | [G,,G,]4 [B,,B,]2 [D,A,]2 | [E,G,]4 [D,A,]2 [E,B,]2 | %3
 [G,B,]4 [D,A,]4 | [D,D]4 [B,,D]2 [D,B,]2 | G,4 [E,B,]2 [C,A,]2 | [D,G,]4 [D,A,]2 [D,D]2 | %7
 [G,,B,]8 | G,4 [G,D]2 [G,B,]2 | [D,A,]4 [D,G,]2 [D,A,]2 | [E,B,]4 [E,B,]2 [D,G,]2 | G,4 [D,A,]4 | %12
 [G,D]4 [G,D]2 [E,B,]2 | [D,G,]4 [B,,G,]2 [B,,A,]2 | [B,,B,]4 [D,D]2 [D,D]2 | [G,,B,]8 |] %16
V:4
 x8 | x8 | x8 | x8 | x8 | G,4 x4 | x8 | x8 | G,4 x4 | x8 | x8 | G,4 x4 | x8 | x8 | x8 | x8 |] %16

